X:1
T:Partition sans titre
C:Compositeur / Arrangeur
L:1/8
M:4/4
I:linebreak $
K:A
V:1 treble nm="Violon" snm="Vln."
V:1
"A" A2 ce A3 c |[M:3/4] e>c f>c e>c |[M:4/4]"E" d2 Bd cB e2- | e^d/e/ fe =dB"A" A2 :: %4
[M:4/4]"A" Acec a2 fe | ec e2 fedc |"E7" df B2 edcB |1[M:2/4]"A" ce A2 :|2 %8
[M:3/4]"A" ce A>d"E" BA ||[M:4/4]"E" G2 GG GdcB |"A" A2 AA Aedc |"E7" ddee ffgg |"A" e2 ee ePcBA | %13
"E" G2 GG GdcB |"A" A2 AA Aedc |"E7" ddee ffgg |[M:3/4]"A" ae f/e/f/g/ a2 |] %17
